packages/vibrant-icons/assets/icons/DocumentAdd/Fill.svg

<svg fill="none" height="24" viewBox="0 0 24 24" width="24" xmlns="http://www.w3.org/2000/svg"><g fill="#0c0c0c"><path clip-rule="evenodd" d="m3.6499 23.1004c-.13807 0-.25-.1119-.25-.25v-21.70001c0-.13807.11193-.249999.25-.249999h10.639l6.311 6.312499v5.78711h-4.3499v3.25h-3v6.8504zm9.75-19.97701v4.977h4.9765z" fill-rule="evenodd"/><path d="m18.2749 20.4754v3.125h2.2v-3.125h3.125v-2.2h-3.125v-3.125h-2.2v3.125h-3.125v2.2z"/></g></svg>

<svg xmlns="http://www.w3.org/2000/svg" width="24" height="24" fill="none"><g fill="#0c0c0c"><path fill-rule="evenodd" d="M3.65 23.1a.25.25 0 0 1-.25-.25V1.15A.25.25 0 0 1 3.65.9h10.639l6.31 6.313V13H16.25v3.25h-3v6.85zM13.4 3.123V8.1h4.976z" clip-rule="evenodd"/><path d="M18.275 20.475V23.6h2.2v-3.125H23.6v-2.2h-3.125V15.15h-2.2v3.125H15.15v2.2z"/></g></svg>
